X:1
T:Bour\'ee
C:Trad.
R:B2
E:8
M:3/8
K:G
Bc|d2dedc|d4 gf|e2edef|e2d2Bc|d2dedc|d4 gf|e2edef|g4:|*
|: Bc|d2dedc|B2c2d2|cBAGAc|B2G2Bc|d2dedc|B2c2d2|cBAGAB|G4:|**
